public/images/icons/github-octocat.svg

<svg xmlns="http://www.w3.org/2000/svg" width="32" height="32" viewBox="0 0 32 32"><path d="M15 0c-8.28 0-15 6.89-15 15.38 0 6.8 4.3 12.56 10.26 14.59.75.14 1.02-.33 1.02-.74l-.02-2.61c-4.17.93-5.05-2.07-5.05-2.07-.68-1.77-1.67-2.25-1.67-2.25-1.36-.95.11-.93.11-.93 1.5.11 2.29 1.59 2.29 1.59 1.34 2.35 3.52 1.67 4.37 1.27.14-.99.52-1.67.95-2.05-3.33-.39-6.83-1.71-6.83-7.6 0-1.68.58-3.06 1.54-4.13-.15-.39-.67-1.95.15-4.07 0 0 1.26-.41 4.13 1.58 1.19-.35 2.48-.52 3.75-.52s2.56.17 3.76.52c2.86-1.99 4.12-1.58 4.12-1.58.82 2.12.3 3.68.15 4.07.96 1.07 1.54 2.45 1.54 4.13 0 5.9-3.51 7.2-6.85 7.58.54.48 1.02 1.42 1.02 2.85 0 2.06-.02 3.72-.02 4.22 0 .41.27.89 1.03.74 5.96-2.04 10.25-7.8 10.25-14.59 0-8.49-6.72-15.38-15-15.38"/></svg>

<svg xmlns="http://www.w3.org/2000/svg" xmlns:xlink="http://www.w3.org/1999/xlink" xmlns:sketch="http://www.bohemiancoding.com/sketch/ns" width="32" height="32" viewBox="0 0 32 32" version="1.1"><path d="M15 0C6.72 0 0 6.89 0 15.38 0 22.18 4.3 27.94 10.26 29.97 11.01 30.11 11.28 29.64 11.28 29.23 11.28 28.87 11.27 27.9 11.26 26.62 7.09 27.55 6.21 24.55 6.21 24.55 5.53 22.78 4.54 22.3 4.54 22.3 3.18 21.35 4.65 21.37 4.65 21.37 6.15 21.48 6.94 22.96 6.94 22.96 8.28 25.31 10.46 24.63 11.31 24.23 11.45 23.24 11.83 22.56 12.26 22.18 8.93 21.79 5.43 20.47 5.43 14.58 5.43 12.9 6.01 11.52 6.97 10.45 6.82 10.06 6.3 8.5 7.12 6.38 7.12 6.38 8.38 5.97 11.25 7.96 12.44 7.61 13.73 7.44 15 7.44 16.27 7.44 17.56 7.61 18.76 7.96 21.62 5.97 22.88 6.38 22.88 6.38 23.7 8.5 23.18 10.06 23.03 10.45 23.99 11.52 24.57 12.9 24.57 14.58 24.57 20.48 21.06 21.78 17.72 22.16 18.26 22.64 18.74 23.58 18.74 25.01 18.74 27.07 18.72 28.73 18.72 29.23 18.72 29.64 18.99 30.12 19.75 29.97 25.71 27.93 30 22.17 30 15.38 30 6.89 23.28 0 15 0"/></svg>
